app/images/sentry-wordmark-light.svg

<svg height="119" viewBox="0 0 222 66" width="400" xmlns="http://www.w3.org/2000/svg"><path d="m29 2.26a4.67 4.67 0 0 0 -8 0l-6.58 11.27a32.21 32.21 0 0 1 17.75 26.66h-4.62a27.68 27.68 0 0 0 -15.46-22.72l-6.09 10.53a15.92 15.92 0 0 1 9.23 12.17h-10.61a.76.76 0 0 1 -.62-1.11l2.94-5a10.74 10.74 0 0 0 -3.36-1.9l-2.91 5a4.54 4.54 0 0 0 1.69 6.24 4.66 4.66 0 0 0 2.26.6h14.53a19.4 19.4 0 0 0 -8-17.31l2.31-4a23.87 23.87 0 0 1 10.3 21.31h12.31a35.88 35.88 0 0 0 -16.41-31.8l4.67-8a.77.77 0 0 1 1.05-.27c.53.29 20.29 34.77 20.66 35.17a.76.76 0 0 1 -.68 1.13h-4.76q.09 1.91 0 3.81h4.78a4.59 4.59 0 0 0 4.62-4.61 4.49 4.49 0 0 0 -.62-2.28zm95.32 26.02-14.76-19.06h-3.68v25.55h3.73v-19.58l15.18 19.58h3.26v-25.55h-3.73zm-37.17-4.74h13.23v-3.32h-13.24v-7.69h14.93v-3.32h-18.73v25.56h18.92v-3.32h-15.12zm-15.56-3.24c-5.15-1.24-6.59-2.22-6.59-4.6 0-2.14 1.89-3.59 4.71-3.59a12.06 12.06 0 0 1 7.07 2.55l2-2.83a14.1 14.1 0 0 0 -9-3c-5.06 0-8.59 3-8.59 7.27 0 4.6 3 6.19 8.46 7.52 4.86 1.12 6.35 2.16 6.35 4.49s-2 3.77-5.09 3.77a12.34 12.34 0 0 1 -8.3-3.26l-2.25 2.69a15.94 15.94 0 0 0 10.42 3.85c5.48 0 9-2.95 9-7.51-.03-3.86-2.31-5.93-8.19-7.35zm124.11-11.08-7.69 12-7.64-12h-4.46l10.09 15.45v10.11h3.84v-10.23l10.16-15.33zm-64.63 3.46h8.37v22.1h3.84v-22.1h8.37v-3.46h-20.57zm38.34 12.12c3.86-1.07 6-3.77 6-7.63 0-4.91-3.59-8-9.38-8h-11.36v25.59h3.8v-9.18h6.45l6.48 9.2h4.44l-7-9.82zm-10.95-2.5v-9.7h7.17c3.74 0 5.88 1.77 5.88 4.84s-2.29 4.86-5.84 4.86z" fill="#fff" transform="translate(11 11)"/></svg>

<svg class="css-lfbo6j e1igk8x04" xmlns="http://www.w3.org/2000/svg" viewBox="0 0 222 66" width="400" height="119"><path d="M29,2.26a4.67,4.67,0,0,0-8,0L14.42,13.53A32.21,32.21,0,0,1,32.17,40.19H27.55A27.68,27.68,0,0,0,12.09,17.47L6,28a15.92,15.92,0,0,1,9.23,12.17H4.62A.76.76,0,0,1,4,39.06l2.94-5a10.74,10.74,0,0,0-3.36-1.9l-2.91,5a4.54,4.54,0,0,0,1.69,6.24A4.66,4.66,0,0,0,4.62,44H19.15a19.4,19.4,0,0,0-8-17.31l2.31-4A23.87,23.87,0,0,1,23.76,44H36.07a35.88,35.88,0,0,0-16.41-31.8l4.67-8a.77.77,0,0,1,1.05-.27c.53.29,20.29,34.77,20.66,35.17a.76.76,0,0,1-.68,1.13H40.6q.09,1.91,0,3.81h4.78A4.59,4.59,0,0,0,50,39.43a4.49,4.49,0,0,0-.62-2.28Z M124.32,28.28,109.56,9.22h-3.68V34.77h3.73V15.19l15.18,19.58h3.26V9.22h-3.73ZM87.15,23.54h13.23V20.22H87.14V12.53h14.93V9.21H83.34V34.77h18.92V31.45H87.14ZM71.59,20.3h0C66.44,19.06,65,18.08,65,15.7c0-2.14,1.89-3.59,4.71-3.59a12.06,12.06,0,0,1,7.07,2.55l2-2.83a14.1,14.1,0,0,0-9-3c-5.06,0-8.59,3-8.59,7.27,0,4.6,3,6.19,8.46,7.52C74.51,24.74,76,25.78,76,28.11s-2,3.77-5.09,3.77a12.34,12.34,0,0,1-8.3-3.26l-2.25,2.69a15.94,15.94,0,0,0,10.42,3.85c5.48,0,9-2.95,9-7.51C79.75,23.79,77.47,21.72,71.59,20.3ZM195.7,9.22l-7.69,12-7.64-12h-4.46L186,24.67V34.78h3.84V24.55L200,9.22Zm-64.63,3.46h8.37v22.1h3.84V12.68h8.37V9.22H131.08ZM169.41,24.8c3.86-1.07,6-3.77,6-7.63,0-4.91-3.59-8-9.38-8H154.67V34.76h3.8V25.58h6.45l6.48,9.2h4.44l-7-9.82Zm-10.95-2.5V12.6h7.17c3.74,0,5.88,1.77,5.88,4.84s-2.29,4.86-5.84,4.86Z" fill="#ffffff" transform="translate(11, 11)"></path></svg>
